X: 1
T: Paddy McGinty's Goat
C: Robert Weston & Bert Lee
R: Hornpipe (Swung)
L:1/8
M: 4/4
K:G
Z: ABC transcription by Verge Roller
r: 32
|: d>c | "G" B2 B>A G2 G>A | "G" B>AB>c d2 d>B | "Am" c2 c>B A2 A>B | "Am" c>Bc>d "D"e2 d>c |
"G" B2B>A G2G>A | "G" B>AB>c d2 d>B | "Am" c>Bc>B "D" A>dd>c | "G" B>GG>G G2 :|
|: (3 def |"G" g2 g>g d2 d>d | "G" g2 g>g d2 d>e |"D" f>ef>e d>^cd>e | "D" f>ef>e d2 d2 |
"C" e2 e>e "G" d2 d2 | "D" c>Bc>d "G" B4 | "Am" c2 c>B "D" A2 d>c | "G" (3 BGG G>G G2 :|
